X: 7
T: The Wind that Shakes the Barley
P: piffero primo a0848
O: trad
%R: reel
F: http://ancients.sudburymuster.org/mus/ssp/pdf/stkildaF.pdf
Z: 2019 John Chambers <jc:trillian.mit.edu>
M: 2/4
L: 1/16
K: D
z2 |:\
A2AB AFED | B2BA BcdB | A2AB AFED | gfed BcdB | A3B AFED |
B2BA BcdB | A2AB AFED | gfed Bcde || f2fd g2ge | f2fd ecBA | f2fd g2ge |
afed Bcde | f2fd g2ge | f2fd ecBA | defg afbf |1 afed BcdB :|2 afed Bcd2 |]

%%center (drum solo)
%%center (fife solo)


